X: 88
T: Willy Walsh's jig
C: anon.
O: Ireland
B: Francis O'Neill: "The Dance Music of Ireland" (1907) no. 88
R: Double jig
Z: Transcribed by Frank Nordberg - http://www.musicaviva.com
F: http://www.musicaviva.com/abc/tunes/ireland/oneill-1001/oneill-1001-008
8.abc
M: 6/8
L: 1/8
K: D
B|ADD BAF|ABd edB|ADD BAF|AFE E2F|ADD BAF|ABd efB|AdB AFA|Bdd d2:|
|:B|AFA d2e|fdf ecA|BAB d2e|faf gfg|AFA d2e|fdf ecA|AdB AFA|Bdd d2:|
W:
W:
W: From Musica Viva - http://www.musicaviva.com
W: the Internet center for free sheet music downloads.


